X:1
T:Title
%%score { 1 | 2 }
L:1/8
M:4/4
K:A
V:1 treble nm="Grand Piano"
V:2 bass 
V:1
 z4 z2[Q:1/4=100] [CA]2 | [Ec]3 [CEA] [DFB][DFA][DFA][A,DF] | [A,CE]6 [A,CE]2 | %3
 [CEA]3 [CEA] [Ec]2 [CA]2 | [EB]6 [CA]2 | [Ec]3 [CEA] [FB][FA][FA][DF] | [CE]6 [CE]2 | G3 G F2 E2 | %8
 [CA]6 z2 |[M:2/4] [A,C][CE] [CE][CE] | [DF][FA] [FA]2 | GA B2 |[M:5/8] AB c3 | %13
[M:2/4] C[CE] [CE][CE] | [DF][FA] [FA]2 | GA BG | [CEA] .[CEA]3 | [E,A,C][CE][K:treble] [CE][CE] | %18
 [DF][FA] [FA]2 | GA B2 |[M:5/8] AB c3 |[M:2/4] C[CE] [CE][CE] | [DF][FA] [FA]2 | GA BG | %24
 [CEA] .[CEA]3 |] %25
V:2
 z4 z2 [A,,A,]2 | [A,,A,]3 A,, D,D,D,D, | A,,6 A,,2 | A,,3 A,, [A,,A,]2 [A,,A,]2 | %4
 [E,G,]6 [A,,A,]2 | [A,,A,]3 A,, [D,D][D,D][D,D][D,A,] | [A,,A,]6 [A,,A,]2 | %7
 [E,B,D]3 [E,B,D] [E,A,D]2 [E,G,D]2 | [A,,A,]6 z2 |[M:2/4] [A,,E,][A,,A,] [A,,A,][A,,A,] | %10
 [D,A,][D,D] [D,D]2 | [E,B,E][E,CE] [E,DE]2 |[M:5/8][K:treble] [A,CE][A,DE] [A,EA]3 | %13
[M:2/4][K:bass] [A,,E,A,][A,,A,] [A,,A,][A,,A,] | [D,A,][D,D] [D,D]2 | %15
 [E,B,E][E,CE] [E,DE][E,B,E] | A,, .A,,3 | A,,[A,,A,] [A,,A,][A,,A,] | [D,A,][D,D] [D,D]2 | %19
 [E,B,E][E,CE] [E,DE]2 |[M:5/8][K:treble] [A,CE][A,DE] [A,EA]3 | %21
[M:2/4][K:bass] [A,,E,A,][A,,A,] [A,,A,][A,,A,] | [D,A,][D,D] [D,D]2 | %23
 [E,B,E][E,CE] [E,DE][E,B,E] | A,, .A,,3 |] %25

